app/dist/common/images/ceotronics-ag.svg

<svg height="18" viewBox="0 0 18 18" width="18" xmlns="http://www.w3.org/2000/svg"><path d="m0 0h18v18h-18z" fill="#11417f"/><g fill="#fff"><path d="m8.67 9.37c-.1-.2-.2-.47-.23-.69-.07-.4.03-.85.23-1.18h4.08v1.87h-1.24v4.33h1.12c.66-.08 1.04-.5 1.08-1.16v-2.54h.29v2.68c-.08.8-.6 1.32-1.42 1.32h-7.26c-.8-.08-1.24-.56-1.32-1.35v-7.21c.08-.84.55-1.36 1.4-1.44h7.2c.8.08 1.32.56 1.4 1.37v1.94h-.31v-1.81c-.04-.7-.47-1.15-1.17-1.19h-7.06c-.63.08-1.07.42-1.15 1.07v7.24c.08.63.43.99 1.06 1.07h4.4v-4.31h-1.1z"/><path d="m8 7.11c-.4.36-.68.74-.7 1.37 0 .63.28 1.05.67 1.42l-.14.1a1.7 1.7 0 0 1 -.83-1.52c.02-.72.38-1.15.88-1.48zm5.38.39v1.88h-.32v-1.88h.31zm.62 0v1.88h-.31v-1.88z"/><path d="m6.55 8.55a1.88 1.88 0 0 0 1.85 1.86c.49 0 .93-.2 1.26-.5v1.77a4.53 4.53 0 0 1 -1.41.32c-1.81 0-3.27-1.72-3.25-3.56a3.47 3.47 0 0 1 3.35-3.44c1.45 0 2.67 1.04 3.15 2.45h-1.55c-.33-.52-.9-.86-1.55-.86a1.88 1.88 0 0 0 -1.85 1.96z"/></g></svg>

<!-- by TradingView --><svg width="18" height="18" viewBox="0 0 18 18" xmlns="http://www.w3.org/2000/svg"><path fill="#11417F" d="M0 0h18v18H0z"/><path d="M8.67 9.37c-.1-.2-.2-.47-.23-.69-.07-.4.03-.85.23-1.18h4.08v1.87h-1.24v4.33h1.12c.66-.08 1.04-.5 1.08-1.16V10H14v2.68c-.08.8-.6 1.32-1.42 1.32H5.32c-.8-.08-1.24-.56-1.32-1.35V5.44c.08-.84.55-1.36 1.4-1.44h7.2c.8.08 1.32.56 1.4 1.37v1.94h-.31V5.5c-.04-.7-.47-1.15-1.17-1.19H5.46c-.63.08-1.07.42-1.15 1.07v7.24c.08.63.43.99 1.06 1.07h4.4V9.38h-1.1Z" fill="#fff"/><path d="M8 7.11c-.4.36-.68.74-.7 1.37 0 .63.28 1.05.67 1.42l-.14.1A1.7 1.7 0 0 1 7 8.48c.02-.72.38-1.15.88-1.48l.12.11ZM13.38 7.5v1.88h-.32V7.5h.31ZM14 7.5v1.88h-.31V7.5H14Z" fill="#fff"/><path d="M6.55 8.55a1.88 1.88 0 0 0 1.85 1.86c.49 0 .93-.2 1.26-.5v1.77a4.53 4.53 0 0 1-1.41.32C6.44 12 4.98 10.28 5 8.44A3.47 3.47 0 0 1 8.35 5c1.45 0 2.67 1.04 3.15 2.45H9.95c-.33-.52-.9-.86-1.55-.86a1.88 1.88 0 0 0-1.85 1.96Z" fill="#fff"/></svg>
